X:1
T:G Major Elijah Griswold, 1803
T:Robert Seagrave, 1742 Pilgrim's Song     76. 76. 77. 76
T:Pilgrim's Rest
T:Transcribed from The American Compiler, 1803.
%%score [ 1 2 3 4 ]
L:1/8
Q:1/4=100
M:2/4
K:G
V:1 treble nm="Tr." snm="Tr."
V:2 treble nm="C." snm="C."
V:3 treble-8 nm="T." snm="T."
V:4 bass nm="B." snm="B."
V:1
 GB GB | G3 E | AB AB | (B d2) d | (d>e) (d>c) | B2 A2 | G4 | G>A GB | (e d2) d | (g e2) B | A3 A | %11
w: 1.~Rise, * my *|soul, and|stretch * thy *|wings, * Thy|bet- * ter *|por- tion|trace,|Rise * * from|tran- * si-|to- * ry|things, Toward|
 G2 B2 | A2 (3ABc | d4 | e3 B | A3 B | d3 B | G3 z | d2 d2 | e2 d2 | e2 d2 | B4 |: GB BB | Ac cc | %24
w: heav'n, thy|na- tive * *|place;|Sun and|moon and|stars de-|cay.|Time shall|soon this|earth re-|move;|Rise, * * my|soul, * * and|
 Bd dd | d3 d | (e g2) c | B2 A2 |1 G4 :|2 G4- || G4 |] %31
w: haste * * a-|way, To|seats * pre-|pared a-|bove.|||
V:2
 Bd Bd | B3 A | cB AB | A3 A | (G>A) (B>c) | d2 d2 | B4 | c3 B | (A d2) B | G3 E | D3 A | B2 G2 | %12
w: 2.~Ri- * vers *|to the|o- * cean *|run, Nor|stay * in *|all their|course;|Fire a-|scen- * ding|seeks the|sun, Both|speed them|
 A2 A2 | A4 | c3 e | d3 B | G3 G | D3 z | B2 B2 | c2 B2 | c2 dc | G4 |: dB Bd | cA AA | GB BB | %25
w: to their|source;|So a|soul that's|born of|God|Pants to|view his|glo- rious *|face;|Up- * * wards|tends * * to|his * * a-|
 A3 A | (G e2) e | d2 d2 |1 B4 :|2 B4- || B4 |] %31
w: bode, To|rest * in|his em-|brace.|||
V:3
 d2 d2 | d3 B | ed cB | A3 d | g2 d2 | B2 d2 | d4 | e>de/d/B | A3 G | (d B2) G | d3 d | ef gf | %12
w: 3.~Cease, ye|pil- grims,|cease * to *|mourn, Press|on- ward|to the|prize;|Soon * * * our|Sa- vior|will * re-|turn Tri-|um- * phant *|
 ed cB | A4 |"^Yet      a          sea   –    son       and    you      know" z4 | z4 | z4 | z4 | %18
w: in * the *|skies:|||||
 g2 d2 | e2 B2 | A2 Gd | B4 |: GB dB | (c e2) e | dB G B/c/ | d3 d | (g e2) c | B>c d>e |1 d4 :|2 %29
w: Hap- py|en- trance|will be *|given;|All * * our|sor- * rows|cast * * be- *|low, And|earth * ex-|changed * for *|heaven.|
 d4- || d4 |] %31
w: ||
V:4
 G,2 G,2 | G,3 B, | A,2 D,2 | D,3 D, | G,2 G,2 | G,2 D,2 | G,,4 | C,3 C, | (B,, D,2) D, | %9
 (C, E,2) E, | D,3 D, | G,2 G,E, | A,2 A,,2 | D,4 | z4 | z4 | z4 | z4 | G,2 G,2 | E,2 G,B, | %20
 A,2 B,G, | E,4 |: (G, D,2) B,, | C,3 C, | G,3 G, | D,3 G, | [C,C]3 C, | D,2 D,2 |1 G,,4 :|2 %29
 G,,4- || G,,4 |] %31

